build/finance/TreasurySolid.svg

<svg xmlns="http://www.w3.org/2000/svg" fill="none" viewBox="0 0 24 24" focusable="false"><path d="M0 0H24V24H0z"/><path fill="#74767B" d="M7.77658 14.9461 6.24839 16.7094C6.01329 16.9807 5.60278 17.01 5.33149 16.7749 5.06021 16.5398 5.03088 16.1293 5.26598 15.858L7.05568 13.7929C7.10062 13.7411 7.15196 13.6981 7.20752 13.664 7.43998 13.4429 7.80539 13.4233 8.07971 13.6047 9.19478 14.3422 10.5315 14.7716 11.9684 14.7716 13.4681 14.7716 14.8585 14.3039 16.0018 13.5065 16.2939 13.3027 16.6985 13.3322 16.9313 13.6017 16.9496 13.6229 16.9664 13.645 16.9815 13.6678L18.734 15.6899C18.9691 15.9612 18.9397 16.3717 18.6684 16.6068 18.3972 16.8419 17.9867 16.8126 17.7515 16.5413L16.2981 14.8642C15.218 15.5196 13.9776 15.9372 12.6495 16.0443 12.6498 16.0526 12.65 16.0609 12.65 16.0693L12.65 17.9457C12.65 18.3046 12.359 18.5957 12 18.5957 11.641 18.5957 11.35 18.3046 11.35 17.9457L11.35 16.0693C11.35 16.0625 11.3501 16.0558 11.3503 16.0491 10.0547 15.9544 8.84113 15.5644 7.77658 14.9461ZM5.41232 18.6507C5.41232 19.3687 4.83029 19.9507 4.11232 19.9507 3.39435 19.9507 2.81232 19.3687 2.81232 18.6507 2.81232 17.9327 3.39435 17.3507 4.11232 17.3507 4.83029 17.3507 5.41232 17.9327 5.41232 18.6507Z"/><path fill="#74767B" d="M5.41232 18.6507C5.41232 19.3687 4.83029 19.9507 4.11232 19.9507 3.39435 19.9507 2.81232 19.3687 2.81232 18.6507 2.81232 17.9327 3.39435 17.3507 4.11232 17.3507 4.83029 17.3507 5.41232 17.9327 5.41232 18.6507ZM13.3 20.7C13.3 21.418 12.718 22 12 22 11.282 22 10.7 21.418 10.7 20.7 10.7 19.9821 11.282 19.4 12 19.4 12.718 19.4 13.3 19.9821 13.3 20.7Z"/><path fill="#74767B" d="M13.3 20.7C13.3 21.418 12.718 22 12 22 11.282 22 10.7 21.418 10.7 20.7 10.7 19.9821 11.282 19.4 12 19.4 12.718 19.4 13.3 19.9821 13.3 20.7ZM19.888 19.9507C20.606 19.9507 21.188 19.3687 21.188 18.6507 21.188 17.9327 20.606 17.3507 19.888 17.3507 19.17 17.3507 18.588 17.9327 18.588 18.6507 18.588 19.3687 19.17 19.9507 19.888 19.9507Z"/><path fill="#74767B" d="M19.888 19.9507C20.606 19.9507 21.188 19.3687 21.188 18.6507 21.188 17.9327 20.606 17.3507 19.888 17.3507 19.17 17.3507 18.588 17.9327 18.588 18.6507 18.588 19.3687 19.17 19.9507 19.888 19.9507ZM11.2986 6.91647 11.2986 5.35933 13.0772 5.35933C13.5072 5.35933 13.8558 5.7079 13.8558 6.1379 13.8558 6.56789 13.5072 6.91647 13.0772 6.91647L11.2986 6.91647Z"/><path fill="#74767B" d="M11.2986 6.91647L11.2986 5.35933L13.0772 5.35933C13.5072 5.35933 13.8558 5.7079 13.8558 6.1379C13.8558 6.56789 13.5072 6.91647 13.0772 6.91647L11.2986 6.91647Z"/><path fill="#74767B" fill-rule="evenodd" d="M12 13.4186C15.1531 13.4186 17.7093 10.8625 17.7093 7.70932C17.7093 4.55615 15.1531 2 12 2C8.8468 2 6.29065 4.55615 6.29065 7.70932C6.29065 10.8625 8.8468 13.4186 12 13.4186ZM13.0772 8.21647L11.2986 8.21647L11.2986 8.9158L13.0421 8.9158C13.4011 8.9158 13.6921 9.20682 13.6921 9.5658C13.6921 9.92479 13.4011 10.2158 13.0421 10.2158L11.2986 10.2158L11.2986 10.7093C11.2986 11.0683 11.0076 11.3593 10.6486 11.3593C10.2896 11.3593 9.99864 11.0683 9.99864 10.7093L9.99864 10.2158L9.57523 10.2158C9.21625 10.2158 8.92523 9.92479 8.92523 9.5658C8.92523 9.20682 9.21625 8.9158 9.57523 8.9158L9.99864 8.9158L9.99864 8.21647L9.58373 8.21647C9.22474 8.21647 8.93373 7.92545 8.93373 7.56647C8.93373 7.20748 9.22474 6.91647 9.58373 6.91647L9.99864 6.91647L9.99864 5.00813C9.99864 4.48008 10.4274 4.05933 10.9486 4.05933L13.0772 4.05933C14.2252 4.05933 15.1558 4.98993 15.1558 6.1379C15.1558 7.28586 14.2252 8.21647 13.0772 8.21647Z"/><path fill="#74767B" fill-rule="evenodd" d="M12 13.4186C15.1531 13.4186 17.7093 10.8625 17.7093 7.70932C17.7093 4.55615 15.1531 2 12 2C8.8468 2 6.29065 4.55615 6.29065 7.70932C6.29065 10.8625 8.8468 13.4186 12 13.4186ZM13.0772 8.21647L11.2986 8.21647L11.2986 8.9158L13.0421 8.9158C13.4011 8.9158 13.6921 9.20682 13.6921 9.5658C13.6921 9.92479 13.4011 10.2158 13.0421 10.2158L11.2986 10.2158L11.2986 10.7093C11.2986 11.0683 11.0076 11.3593 10.6486 11.3593C10.2896 11.3593 9.99864 11.0683 9.99864 10.7093L9.99864 10.2158L9.57523 10.2158C9.21625 10.2158 8.92523 9.92479 8.92523 9.5658C8.92523 9.20682 9.21625 8.9158 9.57523 8.9158L9.99864 8.9158L9.99864 8.21647L9.58373 8.21647C9.22474 8.21647 8.93373 7.92545 8.93373 7.56647C8.93373 7.20748 9.22474 6.91647 9.58373 6.91647L9.99864 6.91647L9.99864 5.00813C9.99864 4.48008 10.4274 4.05933 10.9486 4.05933L13.0772 4.05933C14.2252 4.05933 15.1558 4.98993 15.1558 6.1379C15.1558 7.28586 14.2252 8.21647 13.0772 8.21647Z"/></svg>

<svg xmlns="http://www.w3.org/2000/svg" fill="none" viewBox="0 0 24 24" focusable="false"><g fill="#74767B"><path d="M7.77 14.94 6.24 16.7a.63.63 0 0 1-.91.07.66.66 0 0 1-.07-.92l1.79-2.06c.05-.05.1-.1.15-.13.23-.22.6-.24.87-.06 1.12.74 2.46 1.17 3.89 1.17 1.5 0 2.89-.47 4.04-1.27.29-.2.69-.17.93.1.01.02.03.04.05.06l1.75 2.02c.23.28.2.69-.07.92-.27.24-.68.21-.91-.06l-1.46-1.68a8.4 8.4 0 0 1-3.65 1.18c0 .01.01.02.01.02v1.88c0 .36-.3.65-.65.65-.36 0-.65-.29-.65-.65v-1.9a8.25 8.25 0 0 1-3.58-1.1M5.41 18.65c0 .71-.58 1.3-1.3 1.3s-1.3-.59-1.3-1.3c0-.72.58-1.3 1.3-1.3s1.3.58 1.3 1.3M13.3 20.7c0 .71-.59 1.3-1.3 1.3-.72 0-1.3-.59-1.3-1.3 0-.72.58-1.3 1.3-1.3.71 0 1.3.58 1.3 1.3M19.88 19.95c.72 0 1.3-.59 1.3-1.3 0-.72-.58-1.3-1.3-1.3-.71 0-1.3.58-1.3 1.3 0 .71.59 1.3 1.3 1.3M11.29 6.91V5.35h1.78a.781.781 0 0 1 0 1.56z"/><path fill-rule="evenodd" d="M12 13.41a5.7 5.7 0 0 0 5.7-5.71C17.7 4.55 15.15 2 12 2a5.7 5.7 0 0 0-5.71 5.7c0 3.16 2.55 5.71 5.71 5.71m1.07-5.2h-1.78v.7h1.75c.36 0 .65.29.65.65s-.29.65-.65.65h-1.75v.49c0 .36-.29.65-.65.65s-.65-.29-.65-.65v-.49h-.42c-.36 0-.65-.29-.65-.65s.29-.65.65-.65h.42v-.7h-.41c-.36 0-.65-.29-.65-.65s.29-.65.65-.65h.41V5c0-.52.43-.95.95-.95h2.13c1.15 0 2.08.93 2.08 2.08s-.93 2.08-2.08 2.08"/></g></svg>
